X:1
T:Jesse Welles
M:4/4
L:1/8
Q:1/4=84
K:E
B,2 E2 E2 F2 | G4 z4 | G2 G2 F2 E2 | C4 z4 |
B,2 E2 F2 G2 | A4 G2 F2 | E2 C2 B,2 C2 | E4 z4 |
G2 A2 B2 A2 | G4 F2 E2 | F2 G2 A2 G2 | F4 z4 |
B,2 E2 G2 B2 | A4 G2 F2 | E2 C2 B,2 C2 | E6 z2 |
